X: 17992
T: Hughie Shortie's
R: reel
M: 4/4
K: Gmajor
|:G2GA cABA|GABd g2gf|ec~c2 dB~B2|cAAB AFDF|
G2GA cABA|GABd g2gf|ec~c2 dB~B2|cAFA edBA:|
|:g2g/g/g bgdg|ec~c2 effe|dB~B2 gBB2|
[1~c2AB AFDF|g2g/g/g bgdg|ec~c2 effe|dB~B2 gBB2|cAFA GABd:|
[2~c2AB AFD2|C/C/CCz B,2zD|GABd g2gf|ec~c2 dB~B2|cAFA edBA||

